apps/24/audio-player.svg

<?xml version="1.0" encoding="UTF-8" standalone="no"?>
<!-- Created with Inkscape (http://www.inkscape.org/) -->

<svg
   xmlns:svg="http://www.w3.org/2000/svg"
   xmlns="http://www.w3.org/2000/svg"
   xmlns:xlink="http://www.w3.org/1999/xlink"
   version="1.0"
   width="24"
   height="24"
   id="svg2">
  <defs
     id="defs4">
    <linearGradient
       id="linearGradient8838">
      <stop
         id="stop8840"
         style="stop-color:black;stop-opacity:1"
         offset="0" />
      <stop
         id="stop8842"
         style="stop-color:black;stop-opacity:0"
         offset="1" />
    </linearGradient>
    <radialGradient
       cx="62.625"
       cy="4.625"
       r="10.625"
       fx="62.625"
       fy="4.625"
       id="radialGradient2493"
       xlink:href="#linearGradient8838"
       gradientUnits="userSpaceOnUse"
       gradientTransform="matrix(1,0,0,0.341176,0,3.047059)" />
    <linearGradient
       id="linearGradient3811">
      <stop
         id="stop3813"
         style="stop-color:#243c53;stop-opacity:1"
         offset="0" />
      <stop
         id="stop3815"
         style="stop-color:#416f9b;stop-opacity:1"
         offset="1" />
    </linearGradient>
    <linearGradient
       x1="14.952554"
       y1="45.380947"
       x2="14.952554"
       y2="13.214291"
       id="linearGradient3738"
       xlink:href="#linearGradient3811"
       gradientUnits="userSpaceOnUse"
       gradientTransform="matrix(0.4916775,0,0,0.4916774,0.6986745,-0.3018276)" />
    <linearGradient
       id="linearGradient5106">
      <stop
         id="stop5108"
         style="stop-color:#6294ca;stop-opacity:1"
         offset="0" />
      <stop
         id="stop5110"
         style="stop-color:#376da5;stop-opacity:1"
         offset="1" />
    </linearGradient>
    <linearGradient
       x1="28.771276"
       y1="12.91806"
       x2="28.771276"
       y2="45.347591"
       id="linearGradient3736"
       xlink:href="#linearGradient5106"
       gradientUnits="userSpaceOnUse"
       gradientTransform="matrix(0.4916775,0,0,0.4916774,0.6986745,-0.3018276)" />
    <linearGradient
       id="linearGradient4873">
      <stop
         id="stop4875"
         style="stop-color:white;stop-opacity:1"
         offset="0" />
      <stop
         id="stop4877"
         style="stop-color:white;stop-opacity:0"
         offset="1" />
    </linearGradient>
    <linearGradient
       x1="63.397362"
       y1="-9.3832779"
       x2="63.397362"
       y2="7.4434662"
       id="linearGradient3630"
       xlink:href="#linearGradient4873"
       gradientUnits="userSpaceOnUse"
       gradientTransform="matrix(1.0299253,0,0,1.0299249,-51.56277,15.114325)" />
    <linearGradient
       id="linearGradient3210">
      <stop
         id="stop3212"
         style="stop-color:#21415c;stop-opacity:1"
         offset="0" />
      <stop
         id="stop3214"
         style="stop-color:#3a70a1;stop-opacity:1"
         offset="1" />
    </linearGradient>
    <linearGradient
       x1="-32.440605"
       y1="34.833759"
       x2="-32.440605"
       y2="8.9895411"
       id="linearGradient3542"
       xlink:href="#linearGradient3210"
       gradientUnits="userSpaceOnUse" />
  </defs>
  <g
     id="layer1">
    <path
       d="m 73.25,4.625 a 10.625,3.625 0 1 1 -21.25,0 10.625,3.625 0 1 1 21.25,0 z"
       transform="matrix(1.0352941,0,0,0.8275862,-52.835295,17.172414)"
       id="path2774"
       style="opacity:0.56043958;fill:url(#radialGradient2493);fill-opacity:1;fill-rule:evenodd;stroke:none;stroke-width:0.99999988;marker:none;visibility:visible;display:inline;overflow:visible" />
    <g
       transform="translate(0,0.9999995)"
       id="g2924">
      <path
         d="m 12.492145,1.4999736 c -5.5190685,0 -9.9921705,4.473101 -9.9921705,9.9921714 0,5.519069 4.473102,10.007882 9.9921705,10.007881 5.519068,0 10.007887,-4.488812 10.007882,-10.007881 0,-5.5190704 -4.488814,-9.9921714 -10.007882,-9.9921714 z"
         id="path2555"
         style="fill:url(#linearGradient3736);fill-opacity:1;stroke:url(#linearGradient3738);stroke-width:0.99994898;stroke-linecap:round;stroke-linejoin:round;stroke-miterlimit:4;stroke-opacity:1;stroke-dasharray:none;stroke-dashoffset:0" />
      <path
         d="m 21.506203,11.498108 c 0,4.974818 -4.032961,9.007734 -9.007098,9.007734 -4.9745893,0 -9.0073234,-4.032961 -9.0073234,-9.007734 0,-4.9745889 4.0327341,-9.0070962 9.0073234,-9.0070962 4.974137,0 9.007098,4.0325073 9.007098,9.0070962 l 0,0 z"
         id="path8655"
         style="opacity:0.52747258;fill:none;stroke:url(#linearGradient3630);stroke-width:1;stroke-miterlimit:4;stroke-opacity:1;stroke-dasharray:none" />
      <path
         d="m -19.415211,22.686497 a 13.025395,13.025395 0 1 1 -26.050789,0 13.025395,13.025395 0 1 1 26.050789,0 z"
         transform="matrix(0.4990252,0,0,0.4990252,28.688679,0.1788666)"
         id="path3199"
         style="fill:url(#linearGradient3542);fill-opacity:1;stroke:none" />
      <path
         d="m -135.111,14.485592 c 0.0493,0.131923 -4.42025,5.298444 -4.51077,5.406318 -0.0914,0.108917 -4.44446,5.456746 -4.58468,5.433219 -0.13888,-0.0233 -2.37846,-6.477273 -2.42662,-6.6096 -0.0486,-0.133607 -2.50345,-6.577388 -2.41297,-6.687061 0.0896,-0.108621 6.79872,1.178829 6.9374,1.203282 0.14002,0.02469 6.94791,1.120643 6.99764,1.253842 z"
         transform="matrix(0.4578528,0.1691718,-0.1666448,0.4647962,80.774888,27.624132)"
         id="path3218"
         style="fill:white;fill-opacity:1;stroke:#20425b;stroke-width:2.03700304;stroke-linecap:round;stroke-linejoin:round;stroke-miterlimit:0;stroke-opacity:1;stroke-dasharray:none;stroke-dashoffset:0" />
    </g>
  </g>
</svg>

<?xml version="1.0" encoding="UTF-8" standalone="no"?>
<!-- Created with Inkscape (http://www.inkscape.org/) -->
<svg
   xmlns:dc="http://purl.org/dc/elements/1.1/"
   xmlns:cc="http://creativecommons.org/ns#"
   xmlns:rdf="http://www.w3.org/1999/02/22-rdf-syntax-ns#"
   xmlns:svg="http://www.w3.org/2000/svg"
   xmlns="http://www.w3.org/2000/svg"
   xmlns:xlink="http://www.w3.org/1999/xlink"
   xmlns:sodipodi="http://sodipodi.sourceforge.net/DTD/sodipodi-0.dtd"
   xmlns:inkscape="http://www.inkscape.org/namespaces/inkscape"
   width="24"
   height="24"
   id="svg2"
   sodipodi:version="0.32"
   inkscape:version="0.46"
   version="1.0"
   sodipodi:docname="audio-player.svg"
   inkscape:output_extension="org.inkscape.output.svg.inkscape">
  <defs
     id="defs4">
    <linearGradient
       inkscape:collect="always"
       id="linearGradient8838">
      <stop
         style="stop-color:#000000;stop-opacity:1;"
         offset="0"
         id="stop8840" />
      <stop
         style="stop-color:#000000;stop-opacity:0;"
         offset="1"
         id="stop8842" />
    </linearGradient>
    <radialGradient
       r="10.625"
       fy="4.625"
       fx="62.625"
       cy="4.625"
       cx="62.625"
       gradientTransform="matrix(1,0,0,0.341176,0,3.047059)"
       gradientUnits="userSpaceOnUse"
       id="radialGradient2493"
       xlink:href="#linearGradient8838"
       inkscape:collect="always" />
    <linearGradient
       id="linearGradient3811">
      <stop
         style="stop-color:#243c53;stop-opacity:1;"
         offset="0"
         id="stop3813" />
      <stop
         style="stop-color:#416f9b;stop-opacity:1;"
         offset="1"
         id="stop3815" />
    </linearGradient>
    <linearGradient
       inkscape:collect="always"
       xlink:href="#linearGradient3811"
       id="linearGradient3738"
       gradientUnits="userSpaceOnUse"
       gradientTransform="matrix(0.4916775,0,0,0.4916774,0.6986745,-0.3018276)"
       x1="14.952554"
       y1="45.380947"
       x2="14.952554"
       y2="13.214291" />
    <linearGradient
       id="linearGradient5106">
      <stop
         id="stop5108"
         offset="0"
         style="stop-color:#6294ca;stop-opacity:1;" />
      <stop
         id="stop5110"
         offset="1"
         style="stop-color:#376da5;stop-opacity:1;" />
    </linearGradient>
    <linearGradient
       inkscape:collect="always"
       xlink:href="#linearGradient5106"
       id="linearGradient3736"
       gradientUnits="userSpaceOnUse"
       gradientTransform="matrix(0.4916775,0,0,0.4916774,0.6986745,-0.3018276)"
       x1="28.771276"
       y1="12.91806"
       x2="28.771276"
       y2="45.347591" />
    <linearGradient
       id="linearGradient4873"
       inkscape:collect="always">
      <stop
         id="stop4875"
         offset="0"
         style="stop-color:#ffffff;stop-opacity:1;" />
      <stop
         id="stop4877"
         offset="1"
         style="stop-color:#ffffff;stop-opacity:0;" />
    </linearGradient>
    <linearGradient
       inkscape:collect="always"
       xlink:href="#linearGradient4873"
       id="linearGradient3630"
       gradientUnits="userSpaceOnUse"
       gradientTransform="matrix(1.0299253,0,0,1.0299249,-51.56277,15.114325)"
       x1="63.397362"
       y1="-9.3832779"
       x2="63.397362"
       y2="7.4434662" />
    <linearGradient
       id="linearGradient3210">
      <stop
         style="stop-color:#21415c;stop-opacity:1;"
         offset="0"
         id="stop3212" />
      <stop
         style="stop-color:#3a70a1;stop-opacity:1;"
         offset="1"
         id="stop3214" />
    </linearGradient>
    <linearGradient
       inkscape:collect="always"
       xlink:href="#linearGradient3210"
       id="linearGradient3542"
       gradientUnits="userSpaceOnUse"
       x1="-32.440605"
       y1="34.833759"
       x2="-32.440605"
       y2="8.9895411" />
  </defs>
  <sodipodi:namedview
     id="base"
     pagecolor="#ffffff"
     bordercolor="#666666"
     borderopacity="1.0"
     gridtolerance="10000"
     guidetolerance="10"
     objecttolerance="10"
     inkscape:pageopacity="0.0"
     inkscape:pageshadow="2"
     inkscape:zoom="10.375"
     inkscape:cx="-14.698795"
     inkscape:cy="12"
     inkscape:document-units="px"
     inkscape:current-layer="layer1"
     showgrid="false"
     inkscape:window-width="1440"
     inkscape:window-height="792"
     inkscape:window-x="0"
     inkscape:window-y="24" />
  <metadata
     id="metadata7">
    <rdf:RDF>
      <cc:Work
         rdf:about="">
        <dc:format>image/svg+xml</dc:format>
        <dc:type
           rdf:resource="http://purl.org/dc/dcmitype/StillImage" />
      </cc:Work>
    </rdf:RDF>
  </metadata>
  <g
     inkscape:label="Layer 1"
     inkscape:groupmode="layer"
     id="layer1">
    <path
       transform="matrix(1.0352941,0,0,0.8275862,-52.835295,17.172414)"
       d="M 73.25,4.625 A 10.625,3.625 0 1 1 52,4.625 A 10.625,3.625 0 1 1 73.25,4.625 z"
       sodipodi:ry="3.625"
       sodipodi:rx="10.625"
       sodipodi:cy="4.625"
       sodipodi:cx="62.625"
       id="path2774"
       style="opacity:0.56043958;fill:url(#radialGradient2493);fill-opacity:1;fill-rule:evenodd;stroke:none;stroke-width:0.99999988;stroke-linecap:butt;stroke-linejoin:round;marker:none;marker-start:none;marker-mid:none;marker-end:none;stroke-miterlimit:4;stroke-dasharray:none;stroke-dashoffset:0;stroke-opacity:1;visibility:visible;display:inline;overflow:visible"
       sodipodi:type="arc" />
    <g
       id="g2924"
       transform="translate(0,0.9999995)">
      <path
         id="path2555"
         d="M 12.492145,1.4999736 C 6.9730765,1.4999736 2.4999745,5.9730746 2.4999745,11.492145 C 2.4999745,17.011214 6.9730765,21.500027 12.492145,21.500026 C 18.011213,21.500026 22.500032,17.011214 22.500027,11.492145 C 22.500027,5.9730746 18.011213,1.4999736 12.492145,1.4999736 z"
         style="fill:url(#linearGradient3736);fill-opacity:1;stroke:url(#linearGradient3738);stroke-width:0.99994898;stroke-linecap:round;stroke-linejoin:round;stroke-miterlimit:4;stroke-dasharray:none;stroke-dashoffset:0;stroke-opacity:1" />
      <path
         id="path8655"
         d="M 21.506203,11.498108 C 21.506203,16.472926 17.473242,20.505842 12.499105,20.505842 C 7.5245157,20.505842 3.4917816,16.472881 3.4917816,11.498108 C 3.4917816,6.5235191 7.5245157,2.4910118 12.499105,2.4910118 C 17.473242,2.4910118 21.506203,6.5235191 21.506203,11.498108 L 21.506203,11.498108 z"
         style="opacity:0.52747258;fill:none;fill-opacity:1;fill-rule:nonzero;stroke:url(#linearGradient3630);stroke-width:1;stroke-miterlimit:4;stroke-dasharray:none;stroke-opacity:1" />
      <path
         sodipodi:type="arc"
         style="fill:url(#linearGradient3542);fill-opacity:1;stroke:none;stroke-width:1.01289296;stroke-linecap:round;stroke-linejoin:round;stroke-miterlimit:0;stroke-dasharray:none;stroke-opacity:1"
         id="path3199"
         sodipodi:cx="-32.440605"
         sodipodi:cy="22.686497"
         sodipodi:rx="13.025394"
         sodipodi:ry="13.025394"
         d="M -19.415211,22.686497 A 13.025394,13.025394 0 1 1 -45.466,22.686497 A 13.025394,13.025394 0 1 1 -19.415211,22.686497 z"
         transform="matrix(0.4990252,0,0,0.4990252,28.688679,0.1788666)" />
      <path
         sodipodi:type="star"
         style="fill:#ffffff;fill-opacity:1;stroke:#20425b;stroke-width:2.03700304;stroke-linecap:round;stroke-linejoin:round;stroke-miterlimit:0;stroke-dasharray:none;stroke-dashoffset:0;stroke-opacity:1"
         id="path3218"
         sodipodi:sides="3"
         sodipodi:cx="-142.78783"
         sodipodi:cy="17.27973"
         sodipodi:r1="8.1695127"
         sodipodi:r2="4.1045618"
         sodipodi:arg1="-0.34906585"
         sodipodi:arg2="0.68983381"
         inkscape:flatsided="false"
         inkscape:rounded="0.02"
         inkscape:randomized="0"
         d="M -135.111,14.485592 C -135.06174,14.617515 -139.53125,19.784036 -139.62177,19.89191 C -139.71316,20.000827 -144.06623,25.348656 -144.20645,25.325129 C -144.34533,25.301828 -146.58491,18.847856 -146.63307,18.715529 C -146.6817,18.581922 -149.13652,12.138141 -149.04604,12.028468 C -148.95642,11.919847 -142.24732,13.207297 -142.10864,13.23175 C -141.96862,13.25644 -135.16073,14.352393 -135.111,14.485592 z"
         transform="matrix(0.4578528,0.1691718,-0.1666448,0.4647962,80.774888,27.624132)" />
    </g>
  </g>
</svg>
